dist/assets/images/icons/credit-card.svg

<svg width="108" height="60" viewBox="0 0 108 60" fill="none" xmlns="http://www.w3.org/2000/svg">
<path d="M46.9727 25.0333C46.9179 25.0163 46.8647 24.9961 46.8136 24.9717C31.5438 19.2363 24.4351 29.939 24.4137 29.97C24.2636 30.1886 24.0431 30.3617 23.7715 30.4493L5.64128 36.3053C4.61609 36.6366 3.78259 37.2824 3.22857 38.1124C2.67661 38.9391 2.40041 39.9579 2.48656 41.0387L3.6618 55.7977C3.6886 56.1291 3.78754 56.4266 3.94995 56.6757C4.1136 56.9269 4.3465 57.1384 4.63834 57.2958C4.93349 57.4541 5.23771 57.5326 5.53491 57.5305C5.82718 57.5289 6.13017 57.4458 6.42654 57.2814L6.42737 57.283L24.7204 47.1298C24.9129 47.0195 25.1371 46.9596 25.375 46.9683C25.4203 46.9699 41.2149 47.5802 47.1092 48.6874C52.3398 49.6703 54.5584 47.7454 54.565 47.7401L54.5662 47.7417C54.6276 47.6905 54.6948 47.6442 54.7678 47.6045L72.4474 37.9756L47.8784 37.9756V37.9723C47.7696 37.9723 47.6595 37.9579 47.5499 37.9273C46.6199 37.6678 46.0016 37.0316 45.6887 36.2784C45.5061 35.8388 45.431 35.3587 45.4628 34.8956C45.4949 34.4188 45.6421 33.9474 45.9018 33.5396C46.2835 32.9401 46.8845 32.4948 47.6978 32.3712L63.5798 27.4072C64.4471 27.1362 64.9883 26.3979 65.1524 25.5885C65.2262 25.2241 65.2241 24.8453 65.1413 24.4871C65.0654 24.1578 64.9166 23.8483 64.6915 23.5918C64.1725 22.9997 63.1985 22.6684 61.6885 22.9378L48.237 25.3373V25.3353C48.0181 25.3737 47.7869 25.3539 47.5659 25.265C47.3664 25.1845 47.1694 25.1084 46.9727 25.0333ZM46.1005 22.111L46.1005 5.86386C46.1005 4.25009 46.7584 2.78381 47.8182 1.7216C48.8776 0.65939 50.3406 0 51.9511 0L102.149 0C103.76 0 105.222 0.65939 106.282 1.7216C107.342 2.78381 108 4.25009 108 5.86386V32.1118C108 33.726 107.342 35.1922 106.282 36.254C105.222 37.3162 103.76 37.9756 102.149 37.9756L77.6084 37.9756L56.0473 49.7182C55.4669 50.1558 52.3872 52.1947 46.6549 51.1176C41.416 50.1334 27.9283 49.5455 25.6268 49.4509L7.61374 59.4483L7.61497 59.4504C6.96243 59.8119 6.25877 59.9954 5.5444 59.9999C4.83498 60.0045 4.12967 59.8293 3.46971 59.4744C2.80521 59.1166 2.26933 58.6249 1.88226 58.0312C1.49353 57.4351 1.25857 56.7443 1.19839 55.9915L0.0231552 41.2325C-0.107925 39.5882 0.32283 38.0227 1.18066 36.7374C2.03642 35.455 3.31719 34.4597 4.88733 33.9524L22.6337 28.2203C24.0905 26.3136 31.7499 17.5246 46.1005 22.111ZM77.293 35.4967H77.3038L102.149 35.4967C103.076 35.4967 103.921 35.1154 104.534 34.5014C105.146 33.8875 105.527 33.0414 105.527 32.1118V13.1068L48.5738 13.1068L48.5738 22.7613L61.2635 20.4973C63.7521 20.0535 65.4987 20.7609 66.5465 21.9557C67.0494 22.5291 67.3804 23.2121 67.547 23.9351C67.6187 24.2446 67.6587 24.5623 67.669 24.882H71.3517C71.6931 24.882 71.9701 25.1597 71.9701 25.5018C71.9701 25.8439 71.6931 26.1215 71.3517 26.1215H67.5573C67.3648 27.0267 66.9307 27.8877 66.272 28.5678C66.3585 28.6744 66.4105 28.8103 66.4105 28.9582C66.4105 29.3003 66.1335 29.5779 65.7922 29.5779H64.8243C64.661 29.6502 64.4908 29.7147 64.3139 29.7696L48.3388 34.7634C48.2469 34.7919 48.155 34.8092 48.0631 34.8163C48.021 34.8249 47.9934 34.8435 47.979 34.8663C47.9493 34.9125 47.9316 34.9807 47.9262 35.06C47.92 35.1526 47.934 35.2464 47.9687 35.3294C47.9963 35.3959 48.0408 35.455 48.1018 35.4967L77.293 35.4967ZM92.9981 23.4567C93.9133 23.4567 94.7748 23.6872 95.5275 24.0938C95.8305 23.9314 96.1537 23.7963 96.4929 23.6926C96.9934 23.5393 97.5181 23.4567 98.054 23.4567C99.5285 23.4567 100.864 24.0562 101.831 25.025C102.797 25.9938 103.396 27.3324 103.396 28.8103C103.396 30.2885 102.797 31.6272 101.831 32.5964C100.864 33.5652 99.5289 34.1647 98.054 34.1647C97.5181 34.1647 96.9934 34.0821 96.4929 33.9288C96.1537 33.8247 95.8305 33.69 95.5275 33.5276C94.7748 33.9342 93.9133 34.1647 92.9981 34.1647C91.5232 34.1647 90.1876 33.5652 89.221 32.5964C88.2543 31.6276 87.6562 30.289 87.6562 28.8107C87.6562 27.3324 88.2543 25.9938 89.221 25.025C90.1876 24.0557 91.5232 23.4567 92.9981 23.4567ZM96.9962 25.2597C97.8322 26.205 98.3405 27.4485 98.3405 28.8107C98.3405 30.1729 97.8322 31.4164 96.9962 32.3617C97.3248 32.4592 97.6793 32.5117 98.054 32.5117C99.0738 32.5117 99.9972 32.0977 100.665 31.428C101.333 30.7583 101.747 29.8328 101.747 28.8103C101.747 27.7881 101.333 26.8627 100.665 26.1934C99.9972 25.5237 99.0738 25.1093 98.054 25.1093C97.6793 25.1093 97.3248 25.1622 96.9962 25.2597ZM95.61 26.1934C94.9418 25.5237 94.0184 25.1093 92.9981 25.1093C91.9783 25.1093 91.0549 25.5237 90.3867 26.1934C89.7185 26.8631 89.3051 27.7882 89.3051 28.8107C89.3051 29.8328 89.7185 30.7583 90.3867 31.428C91.0549 32.0977 91.9783 32.5121 92.9981 32.5121C94.0184 32.5121 94.9418 32.0977 95.61 31.428C96.2782 30.7583 96.6912 29.8328 96.6912 28.8107C96.6912 27.7882 96.2782 26.8631 95.61 26.1934ZM68.6039 29.5779C68.2626 29.5779 67.9856 29.3003 67.9856 28.9582C67.9856 28.6157 68.2626 28.3385 68.6039 28.3385H70.714C71.0554 28.3385 71.3324 28.6157 71.3324 28.9582C71.3324 29.3003 71.0554 29.5779 70.714 29.5779H68.6039ZM92.5942 19.0459C92.2524 19.0459 91.9758 18.7682 91.9758 18.4261C91.9758 18.084 92.2524 17.8064 92.5942 17.8064L100.553 17.8064C100.895 17.8064 101.171 18.084 101.171 18.4261C101.171 18.7682 100.895 19.0459 100.553 19.0459L92.5942 19.0459ZM74.4079 19.0459C74.0666 19.0459 73.7896 18.7682 73.7896 18.4261C73.7896 18.084 74.0666 17.8064 74.4079 17.8064L85.901 17.8064C86.2423 17.8064 86.5193 18.084 86.5193 18.4261C86.5193 18.7682 86.2423 19.0459 85.901 19.0459L74.4079 19.0459ZM50.9787 19.0459C50.6374 19.0459 50.3604 18.7682 50.3604 18.4261C50.3604 18.084 50.6374 17.8064 50.9787 17.8064L67.7564 17.8064C68.0981 17.8064 68.3747 18.084 68.3747 18.4261C68.3747 18.7682 68.0981 19.0459 67.7564 19.0459L50.9787 19.0459ZM105.527 11.4542V6.69016L48.5738 6.69016V11.4542L105.527 11.4542ZM105.424 5.03756C105.272 4.43766 104.959 3.90015 104.534 3.47419C103.921 2.86025 103.076 2.47891 102.149 2.47891L51.9511 2.47891C51.0236 2.47891 50.1794 2.86025 49.5668 3.47419C49.1418 3.90015 48.8286 4.43766 48.6764 5.03756L105.424 5.03756Z" fill="#333B41"/>
</svg>

<svg width="108" height="60" fill="none" xmlns="http://www.w3.org/2000/svg"><path d="M46.973 25.033a1.18 1.18 0 01-.16-.061c-15.27-5.736-22.378 4.967-22.4 4.998-.15.219-.37.392-.642.48l-18.13 5.855a4.57 4.57 0 00-2.412 1.807 4.587 4.587 0 00-.742 2.927l1.175 14.759c.027.331.126.629.288.878.164.25.396.462.688.62.295.158.6.237.897.235.292-.002.595-.085.892-.25v.002L24.72 47.13c.193-.11.417-.17.655-.162.045.002 15.84.612 21.734 1.72 5.23.982 7.45-.943 7.456-.948l.001.002a1.24 1.24 0 01.202-.137l17.68-9.63h-24.57v-.003c-.108 0-.218-.014-.328-.045a2.789 2.789 0 01-1.861-1.649 3.079 3.079 0 01-.226-1.382c.032-.477.18-.949.439-1.356.381-.6.983-1.045 1.796-1.169l15.882-4.964c.867-.27 1.408-1.01 1.572-1.819a2.61 2.61 0 00-.01-1.1 2.047 2.047 0 00-.45-.896c-.52-.592-1.493-.924-3.003-.654l-13.452 2.4v-.003c-.219.039-.45.019-.671-.07-.2-.08-.397-.157-.593-.232zm-.873-2.922V5.864c0-1.614.658-3.08 1.718-4.142A5.825 5.825 0 0151.951 0h50.198c1.611 0 3.073.66 4.133 1.722A5.853 5.853 0 01108 5.864v26.248c0 1.614-.658 3.08-1.718 4.142a5.826 5.826 0 01-4.133 1.722h-24.54L56.046 49.718c-.58.438-3.66 2.477-9.392 1.4-5.239-.985-18.727-1.573-21.028-1.667L7.614 59.448l.001.002a4.306 4.306 0 01-2.07.55 4.3 4.3 0 01-2.075-.526 4.315 4.315 0 01-1.588-1.443 4.336 4.336 0 01-.684-2.04L.023 41.234a7.053 7.053 0 011.158-4.496 7.027 7.027 0 013.706-2.785l17.747-5.732c1.456-1.906 9.116-10.695 23.466-6.109zm31.193 13.386h24.856c.927 0 1.772-.382 2.385-.996a3.38 3.38 0 00.993-2.39V13.108H48.574v9.654l12.69-2.264c2.488-.444 4.235.264 5.282 1.459a4.529 4.529 0 011.001 1.98c.072.309.112.626.122.946h3.683a.62.62 0 010 1.24h-3.795a5.017 5.017 0 01-1.285 2.446.62.62 0 01-.48 1.01h-.968a4.706 4.706 0 01-.51.192l-15.975 4.993a1.254 1.254 0 01-.276.053c-.042.009-.07.027-.084.05a.42.42 0 00-.053.194.6.6 0 00.043.27.374.374 0 00.133.167h29.191zm15.705-12.04c.915 0 1.777.23 2.53.637a5.362 5.362 0 012.526-.637c1.474 0 2.81.6 3.777 1.568a5.346 5.346 0 011.565 3.785 5.348 5.348 0 01-1.565 3.786 5.32 5.32 0 01-5.338 1.333 5.391 5.391 0 01-.965-.401 5.306 5.306 0 01-2.53.637 5.32 5.32 0 01-3.777-1.569 5.343 5.343 0 01-1.565-3.785c0-1.479.598-2.817 1.565-3.786a5.317 5.317 0 013.777-1.568zm3.998 1.803a5.343 5.343 0 011.345 3.55 5.343 5.343 0 01-1.345 3.552c.329.097.683.15 1.058.15a3.696 3.696 0 003.693-3.701 3.694 3.694 0 00-1.082-2.618 3.676 3.676 0 00-2.611-1.084c-.375 0-.73.053-1.058.15zm-1.386.933a3.678 3.678 0 00-2.612-1.084c-1.02 0-1.943.415-2.611 1.084a3.694 3.694 0 00-1.082 2.618 3.694 3.694 0 107.386 0 3.693 3.693 0 00-1.081-2.618zm-27.006 3.385a.62.62 0 010-1.24h2.11a.619.619 0 010 1.24h-2.11zm23.99-10.532a.62.62 0 010-1.24h7.959a.619.619 0 010 1.24h-7.959zm-18.186 0a.62.62 0 010-1.24H85.9a.62.62 0 010 1.24H74.408zm-23.43 0a.62.62 0 010-1.24h16.778a.619.619 0 010 1.24H50.98zm54.549-7.592V6.69H48.574v4.764h56.953zm-.103-6.416a3.397 3.397 0 00-.89-1.564 3.366 3.366 0 00-2.385-.995H51.951c-.927 0-1.772.381-2.384.995a3.4 3.4 0 00-.89 1.564h56.747z" fill="#333B41"/></svg>
